img/folder-close.svg

<svg fill="none" height="24" viewBox="0 0 24 24" width="24" xmlns="http://www.w3.org/2000/svg"><g stroke="#fff" stroke-linecap="round" stroke-linejoin="round" stroke-width="2"><path d="m3 11.668v-5.33336c0-1.47334 1.19333-2.66667 2.66667-2.66667h2.60133c.80933 0 1.57333.36667 2.08.99733l.804 1.00267h7.1813c1.4734 0 2.6667 1.19333 2.6667 2.66667v3.79196"/><path d="m5.66667 9h12.66663c1.4734 0 2.6667 1.1933 2.6667 2.6667v6c0 1.4733-1.1933 2.6666-2.6667 2.6666h-12.66663c-1.47334 0-2.66667-1.1933-2.66667-2.6666v-6c0-1.4734 1.19333-2.6667 2.66667-2.6667z"/></g></svg>

<svg width="24" height="24" viewBox="0 0 24 24" fill="none" xmlns="http://www.w3.org/2000/svg">
<path d="M3 11.668V6.33464C3 4.8613 4.19333 3.66797 5.66667 3.66797H8.268C9.07733 3.66797 9.84133 4.03464 10.348 4.6653L11.152 5.66797H18.3333C19.8067 5.66797 21 6.8613 21 8.33464V12.1266" stroke="white" stroke-width="2" stroke-linecap="round" stroke-linejoin="round"/>
<path d="M5.66667 9H18.3333C19.8067 9 21 10.1933 21 11.6667V17.6667C21 19.14 19.8067 20.3333 18.3333 20.3333H5.66667C4.19333 20.3333 3 19.14 3 17.6667V11.6667C3 10.1933 4.19333 9 5.66667 9Z" stroke="white" stroke-width="2" stroke-linecap="round" stroke-linejoin="round"/>
</svg>
